flaticon/user-interface/browser-13.svg

<svg xmlns="http://www.w3.org/2000/svg" width="32" height="32" viewBox="0 0 24 24">
    <path d="M2.800781 1.199219C1.917969 1.199219 1.199219 1.917969 1.199219 2.800781 1.199219 3.683594 1.917969 4.398438 2.800781 4.398438 3.683594 4.398438 4.398438 3.683594 4.398438 2.800781 4.398438 1.917969 3.683594 1.199219 2.800781 1.199219zM2.800781 3.601562C2.359375 3.601562 2 3.242188 2 2.800781 2 2.359375 2.359375 2 2.800781 2 3.242188 2 3.601562 2.359375 3.601562 2.800781 3.601562 3.242188 3.242188 3.601562 2.800781 3.601562zM6.398438 1.199219C5.519531 1.199219 4.800781 1.917969 4.800781 2.800781 4.800781 3.683594 5.519531 4.398438 6.398438 4.398438 7.28125 4.398438 8 3.683594 8 2.800781 8 1.917969 7.28125 1.199219 6.398438 1.199219zM6.398438 3.601562C5.957031 3.601562 5.601562 3.242188 5.601562 2.800781 5.601562 2.359375 5.957031 2 6.398438 2 6.839844 2 7.199219 2.359375 7.199219 2.800781 7.199219 3.242188 6.839844 3.601562 6.398438 3.601562zM10 1.199219C9.117188 1.199219 8.398438 1.917969 8.398438 2.800781 8.398438 3.683594 9.117188 4.398438 10 4.398438 10.882812 4.398438 11.601562 3.683594 11.601562 2.800781 11.601562 1.917969 10.882812 1.199219 10 1.199219zM10 3.601562C9.558594 3.601562 9.199219 3.242188 9.199219 2.800781 9.199219 2.359375 9.558594 2 10 2 10.441406 2 10.800781 2.359375 10.800781 2.800781 10.800781 3.242188 10.441406 3.601562 10 3.601562zM16.601562 10.398438L7.398438 10.398438C7.179688 10.398438 7 10.578125 7 10.800781 7 11.019531 7.179688 11.199219 7.398438 11.199219L16.601562 11.199219C16.820312 11.199219 17 11.019531 17 10.800781 17 10.578125 16.820312 10.398438 16.601562 10.398438zM9 9.601562L15 9.601562C15.222656 9.601562 15.398438 9.421875 15.398438 9.199219 15.398438 8.980469 15.222656 8.800781 15 8.800781L9 8.800781C8.777344 8.800781 8.601562 8.980469 8.601562 9.199219 8.601562 9.421875 8.777344 9.601562 9 9.601562zM9 9.601562"/>
    <path d="M 22 17.199219 L 22 6.800781 L 2 6.800781 L 2 17.199219 Z M 2.800781 7.601562 L 21.199219 7.601562 L 21.199219 16.398438 L 2.800781 16.398438 Z M 2.800781 7.601562"/>
    <path d="M 0 0 L 0 24 L 24 24 L 24 0 Z M 0.800781 0.800781 L 23.199219 0.800781 L 23.199219 4.800781 L 0.800781 4.800781 Z M 23.199219 23.199219 L 0.800781 23.199219 L 0.800781 5.601562 L 23.199219 5.601562 Z M 23.199219 23.199219"/>
    <path d="M8.800781 15.601562L15.199219 15.601562 15.199219 13.199219 8.800781 13.199219zM9.601562 14L14.398438 14 14.398438 14.800781 9.601562 14.800781zM8.199219 18.398438C7.429688 18.398438 6.800781 19.027344 6.800781 19.800781 6.800781 20.570312 7.429688 21.199219 8.199219 21.199219 8.972656 21.199219 9.601562 20.570312 9.601562 19.800781 9.601562 19.027344 8.972656 18.398438 8.199219 18.398438zM8.199219 20.398438C7.871094 20.398438 7.601562 20.128906 7.601562 19.800781 7.601562 19.46875 7.871094 19.199219 8.199219 19.199219 8.53125 19.199219 8.800781 19.46875 8.800781 19.800781 8.800781 20.128906 8.53125 20.398438 8.199219 20.398438zM11.800781 18.398438C11.027344 18.398438 10.398438 19.027344 10.398438 19.800781 10.398438 20.570312 11.027344 21.199219 11.800781 21.199219 12.570312 21.199219 13.199219 20.570312 13.199219 19.800781 13.199219 19.027344 12.570312 18.398438 11.800781 18.398438zM11.800781 20.398438C11.46875 20.398438 11.199219 20.128906 11.199219 19.800781 11.199219 19.46875 11.46875 19.199219 11.800781 19.199219 12.128906 19.199219 12.398438 19.46875 12.398438 19.800781 12.398438 20.128906 12.128906 20.398438 11.800781 20.398438zM15.398438 18.398438C14.628906 18.398438 14 19.027344 14 19.800781 14 20.570312 14.628906 21.199219 15.398438 21.199219 16.171875 21.199219 16.800781 20.570312 16.800781 19.800781 16.800781 19.027344 16.171875 18.398438 15.398438 18.398438zM15.398438 20.398438C15.070312 20.398438 14.800781 20.128906 14.800781 19.800781 14.800781 19.46875 15.070312 19.199219 15.398438 19.199219 15.730469 19.199219 16 19.46875 16 19.800781 16 20.128906 15.730469 20.398438 15.398438 20.398438zM15.398438 20.398438"/>
</svg>

<svg xmlns="http://www.w3.org/2000/svg" width="32" height="32" viewBox="0 0 24 24">
    <path d="M2.8 1.2c-.882 0-1.6.718-1.6 1.6a1.6 1.6 0 1 0 1.6-1.6zm0 2.402A.802.802 0 0 1 2.8 2a.802.802 0 0 1 0 1.602zm0 0M6.398 1.2A1.6 1.6 0 1 0 8 2.801c0-.884-.719-1.603-1.602-1.603zm0 2.402a.799.799 0 0 1-.796-.801.799.799 0 1 1 1.597 0c0 .441-.36.8-.8.8zm0 0M10 1.2c-.883 0-1.602.718-1.602 1.6A1.6 1.6 0 0 0 10 4.399a1.6 1.6 0 0 0 1.602-1.597c0-.883-.72-1.602-1.602-1.602zm0 2.402A.802.802 0 0 1 10 2a.802.802 0 0 1 0 1.602zm0 0M16.602 10.398H7.398a.401.401 0 0 0 0 .801h9.204a.4.4 0 0 0 0-.8zm0 0M9 9.602h6c.223 0 .398-.18.398-.403A.398.398 0 0 0 15 8.801H9a.398.398 0 0 0-.398.398c0 .223.175.403.398.403zm0 0"/>
    <path d="M22 17.2V6.8H2v10.4zM2.8 7.601h18.4v8.796H2.8zm0 0"/>
    <path d="M0 0v24h24V0zm.8.8h22.4v4H.8zm22.4 22.4H.8V5.601h22.4zm0 0"/>
    <path d="M8.8 15.602h6.4v-2.403H8.8zM9.603 14h4.796v.8H9.602zm0 0M8.2 18.398c-.77 0-1.4.63-1.4 1.403 0 .77.63 1.398 1.4 1.398.773 0 1.402-.629 1.402-1.398 0-.774-.63-1.403-1.403-1.403zm0 2a.6.6 0 1 1 .004-1.2.6.6 0 0 1-.005 1.2zm0 0M11.8 18.398c-.773 0-1.402.63-1.402 1.403 0 .77.63 1.398 1.403 1.398.77 0 1.398-.629 1.398-1.398 0-.774-.629-1.403-1.398-1.403zm0 2a.601.601 0 0 1-.6-.597c0-.332.269-.602.6-.602a.6.6 0 0 1 0 1.2zm0 0M15.398 18.398c-.77 0-1.398.63-1.398 1.403 0 .77.629 1.398 1.398 1.398.774 0 1.403-.629 1.403-1.398 0-.774-.63-1.403-1.403-1.403zm0 2a.6.6 0 1 1 .005-1.2.6.6 0 0 1-.005 1.2zm0 0"/>
</svg>
